Sources/Octicons.swift/Resources/Media.xcassets/arrow-right-16.imageset/arrow-right-16.svg

<svg xmlns="http://www.w3.org/2000/svg" viewBox="0 0 16 16" width="16" height="16">  <path fill-rule="evenodd" clip-rule="evenodd" d="M8.21967 2.96967C8.51256 2.67678 8.98744 2.67678 9.28033 2.96967L13.5303 7.21967C13.8232 7.51256 13.8232 7.98744 13.5303 8.28033L9.28033 12.5303C8.98744 12.8232 8.51256 12.8232 8.21967 12.5303C7.92678 12.2374 7.92678 11.7626 8.21967 11.4697L11.1893 8.5H3.75C3.33579 8.5 3 8.16421 3 7.75C3 7.33579 3.33579 7 3.75 7H11.1893L8.21967 4.03033C7.92678 3.73744 7.92678 3.26256 8.21967 2.96967Z"></path></svg>

<svg xmlns="http://www.w3.org/2000/svg" width="16" height="16" viewBox="0 0 16 16"><path d="M8.22 2.97a.75.75 0 0 1 1.06 0l4.25 4.25a.75.75 0 0 1 0 1.06l-4.25 4.25a.751.751 0 0 1-1.042-.018.751.751 0 0 1-.018-1.042l2.97-2.97H3.75a.75.75 0 0 1 0-1.5h7.44L8.22 4.03a.75.75 0 0 1 0-1.06Z"/></svg>
